weblate_web/static/img/icon-reviews.svg

<svg xmlns="http://www.w3.org/2000/svg" xmlns:svg="http://www.w3.org/2000/svg" id="svg4" width="43" height="17" version="1.1" viewBox="-1 -1 44.976 18.021"><metadata id="metadata10"/><path id="path2" fill="none" stroke="#1fa385" stroke-opacity="1" stroke-width="1" d="m 4.8412046,3.3854761 c -0.4440029,0 -0.8325055,0.1665011 -1.0915072,0.4625031 C 3.4906957,4.125481 3.379695,4.5324837 3.4351954,4.9764866 l 0.9250061,5.5315364 c 0.1480009,1.202508 1.221008,2.127514 2.3310153,2.127514 h 5.5500362 c 1.184008,0 2.516017,-1.036006 2.775018,-2.183014 l 1.961013,-5.9015392 c 0.074,-0.2405016 0.0185,-0.5920039 -0.111,-0.8140054 C 16.662782,3.514977 16.34828,3.3854761 15.941278,3.3854761 H 4.8412046 M 12.241253,16.335562 H 6.6912168 c -2.9970197,0 -5.624037,-2.331016 -5.99403945,-5.291035 L -0.22782875,5.5129901 C -0.4313301,3.9404798 0.01267283,2.46047 0.97467922,1.3874629 1.9366855,0.31445585 3.3426947,-0.31454825 4.8412046,-0.31454825 H 15.941278 c 1.53551,0 2.923019,0.64750431 3.811025,1.77601165 0.203501,0.2775018 0.388503,0.5735038 0.536504,0.906506 0.795505,-0.1665011 1.60951,-0.1665011 2.386515,0 0.148001,-0.3330022 0.333003,-0.6290042 0.555004,-0.906506 0.869506,-1.12850734 2.257015,-1.77601165 3.811025,-1.77601165 h 11.100073 c 1.49851,0 2.904519,0.6290041 3.866526,1.70201115 0.943506,1.0730071 1.387509,2.5530169 1.202508,4.0515267 l -0.943506,5.6795374 c -0.351503,2.886019 -2.99702,5.217035 -5.97554,5.217035 h -5.550037 c -2.886019,0 -5.698037,-2.201515 -6.401042,-4.995033 L 22.675322,6.3269955 c -0.703004,-0.5180034 -1.683511,-0.5180034 -2.386515,0 L 18.586795,11.47003 c -0.666004,2.682517 -3.459523,4.865532 -6.345542,4.865532 M 27.041351,3.3854761 c -0.407003,0 -0.721505,0.1295009 -0.925006,0.3515023 -0.148001,0.2220015 -0.185001,0.5735038 -0.0925,0.9435062 l 1.868513,5.6425374 c 0.333002,1.276509 1.665011,2.312515 2.849018,2.312515 h 5.550037 c 1.091507,0 2.183014,-0.925006 2.312515,-2.053513 L 39.547435,4.9024861 C 39.602935,4.5324837 39.491935,4.125481 39.232932,3.8479792 38.973931,3.5519772 38.585428,3.3854761 38.141425,3.3854761 Z"/></svg>

<svg width="43" height="17" version="1.1" viewBox="-1 -1 44.976 18.021" xmlns="http://www.w3.org/2000/svg"><path d="m4.8412 3.3855c-0.444 0-0.83251 0.1665-1.0915 0.4625-0.259 0.2775-0.37 0.6845-0.3145 1.1285l0.92501 5.5315c0.148 1.2025 1.221 2.1275 2.331 2.1275h5.55c1.184 0 2.516-1.036 2.775-2.183l1.961-5.9015c0.074-0.2405 0.0185-0.592-0.111-0.81401-0.2035-0.222-0.518-0.3515-0.92501-0.3515h-11.1m7.4 12.95h-5.55c-2.997 0-5.624-2.331-5.994-5.291l-0.92501-5.5315c-0.2035-1.5725 0.2405-3.0525 1.2025-4.1255 0.96201-1.073 2.368-1.702 3.8665-1.702h11.1c1.5355 0 2.923 0.6475 3.811 1.776 0.2035 0.2775 0.3885 0.5735 0.5365 0.90651 0.7955-0.1665 1.6095-0.1665 2.3865 0 0.148-0.333 0.333-0.629 0.555-0.90651 0.86951-1.1285 2.257-1.776 3.811-1.776h11.1c1.4985 0 2.9045 0.629 3.8665 1.702 0.94351 1.073 1.3875 2.553 1.2025 4.0515l-0.94351 5.6795c-0.3515 2.886-2.997 5.217-5.9755 5.217h-5.55c-2.886 0-5.698-2.2015-6.401-4.995l-1.665-5.0135c-0.703-0.518-1.6835-0.518-2.3865 0l-1.702 5.143c-0.666 2.6825-3.4595 4.8655-6.3455 4.8655m14.8-12.95c-0.407 0-0.7215 0.1295-0.92501 0.3515-0.148 0.222-0.185 0.5735-0.0925 0.94351l1.8685 5.6425c0.333 1.2765 1.665 2.3125 2.849 2.3125h5.55c1.0915 0 2.183-0.92501 2.3125-2.0535l0.94351-5.6795c0.0555-0.37-0.0555-0.77701-0.3145-1.0545-0.259-0.296-0.6475-0.4625-1.0915-0.4625z" fill="none" stroke="#1fa385"/></svg>
